assets/features/global-acquiring/icon_3.svg

<svg width="72" height="72" viewBox="0 0 72 72" fill="none" xmlns="http://www.w3.org/2000/svg">
<g clip-path="url(#clip0_1347_4132)">
<path d="M52 1H20C9.50659 1 1 9.50659 1 20V52C1 62.4934 9.50659 71 20 71H52C62.4934 71 71 62.4934 71 52V20C71 9.50659 62.4934 1 52 1Z" stroke="#9095A1" stroke-width="2"/>
<path d="M53 52.4287V53H52.4287V52.4287H53ZM47.8574 52.4287V53H47.2861V52.4287H47.8574ZM45.2861 39.5713V42.1426H52.4287V39.5713H53V47.8574H47.2861V45.2861H42.7139V53H39.5713V39.5713H45.2861ZM32.4287 39.5713V53H19V39.5713H32.4287ZM22.1426 49.8574H29.2861V42.7139H22.1426V49.8574ZM53 19V32.4287H39.5713V19H53ZM32.4287 19V32.4287H19V19H32.4287ZM22.1426 29.2861H29.2861V22.1426H22.1426V29.2861ZM42.7139 29.2861H49.8574V22.1426H42.7139V29.2861Z" stroke="#9095A1" stroke-width="2"/>
</g>
<defs>
<clipPath id="clip0_1347_4132">
<rect width="72" height="72" fill="white"/>
</clipPath>
</defs>
</svg>

<svg xmlns="http://www.w3.org/2000/svg" width="72" height="72" fill="none" viewBox="0 0 72 72"><g stroke="#9095a1" stroke-width="2" clip-path="url(#a)"><path d="M52 1H20C9.507 1 1 9.507 1 20v32c0 10.493 8.507 19 19 19h32c10.493 0 19-8.507 19-19V20C71 9.507 62.493 1 52 1Z"/><path d="M53 52.429V53h-.571v-.571zm-5.143 0V53h-.57v-.571zm-2.57-12.858v2.572h7.142V39.57H53v8.286h-5.714v-2.57h-4.572V53H39.57V39.571zm-12.858 0V53H19V39.571zM22.143 49.857h7.143v-7.143h-7.143zM53 19v13.429H39.571V19zm-20.571 0v13.429H19V19zM22.143 29.286h7.143v-7.143h-7.143zm20.57 0h7.144v-7.143h-7.143z"/></g><defs><clipPath id="a"><path fill="#fff" d="M0 0h72v72H0z"/></clipPath></defs></svg>
